assets/img/prio_medium_yellow.svg

<svg width="20" height="8" viewBox="0 0 20 8" fill="none" xmlns="http://www.w3.org/2000/svg">
<g clip-path="url(#clip0_156_972)">
<path d="M18.9041 7.45086H1.09589C0.805242 7.45086 0.526498 7.33456 0.320979 7.12755C0.11546 6.92054 0 6.63977 0 6.34701C0 6.05425 0.11546 5.77349 0.320979 5.56647C0.526498 5.35946 0.805242 5.24316 1.09589 5.24316H18.9041C19.1948 5.24316 19.4735 5.35946 19.679 5.56647C19.8845 5.77349 20 6.05425 20 6.34701C20 6.63977 19.8845 6.92054 19.679 7.12755C19.4735 7.33456 19.1948 7.45086 18.9041 7.45086Z" fill="#FFA800"/>
<path d="M18.9041 2.2077H1.09589C0.805242 2.2077 0.526498 2.0914 0.320979 1.88439C0.11546 1.67738 0 1.39661 0 1.10385C0 0.81109 0.11546 0.530322 0.320979 0.32331C0.526498 0.116298 0.805242 0 1.09589 0L18.9041 0C19.1948 0 19.4735 0.116298 19.679 0.32331C19.8845 0.530322 20 0.81109 20 1.10385C20 1.39661 19.8845 1.67738 19.679 1.88439C19.4735 2.0914 19.1948 2.2077 18.9041 2.2077Z" fill="#FFA800"/>
</g>
<defs>
<clipPath id="clip0_156_972">
<rect width="20" height="7.45098" fill="white"/>
</clipPath>
</defs>
</svg>

<?xml version="1.0" encoding="UTF-8"?>
<svg id="Ebene_1" xmlns="http://www.w3.org/2000/svg" xmlns:xlink="http://www.w3.org/1999/xlink" version="1.1" viewBox="0 0 20 8">
  <!-- Generator: Adobe Illustrator 30.1.0, SVG Export Plug-In . SVG Version: 2.1.1 Build 136)  -->
  <defs>
    <style>
      .st0 {
        fill: none;
      }

      .st1 {
        fill: #b279f5;
      }

      .st2 {
        clip-path: url(#clippath);
      }
    </style>
    <clipPath id="clippath">
      <rect class="st0" width="20" height="7.45"/>
    </clipPath>
  </defs>
  <g class="st2">
    <g>
      <path class="st1" d="M18.9,7.45H1.1c-.29,0-.57-.12-.77-.32-.21-.21-.32-.49-.32-.78s.12-.57.32-.78c.21-.21.48-.32.77-.32h17.81c.29,0,.57.12.77.32.21.21.32.49.32.78s-.12.57-.32.78c-.21.21-.48.32-.77.32Z"/>
      <path class="st1" d="M18.9,2.21H1.1c-.29,0-.57-.12-.77-.32-.21-.21-.32-.49-.32-.78S.12.53.32.32c.21-.21.48-.32.77-.32h17.81c.29,0,.57.12.77.32.21.21.32.49.32.78s-.12.57-.32.78c-.21.21-.48.32-.77.32Z"/>
    </g>
  </g>
</svg>
